X:14
T:Jennia Jones
%%score 1 { 2 | 3 }
L:1/8
Q:1/4=110
M:6/8
I:linebreak $
K:F
V:1 treble nm="Violin"
V:2 treble nm="Piano"
V:3 bass 
V:1
C |:"F" F2 F F2 A | ccA F2 F |"C" GGG G2 G | EED C2 C |$ F2 F F2 A | ccA F2 F | G2 G C2 C | 
w: We've|come to see Miss|Jen- ni- a Jones, miss|Jen- ni- a Jones, Miss|Jen- ni- a Jones, We've|come to see Miss|Jen- ni- a Jones, And|how is she to-|
F3- F2 z | z4 z C |$"F" F2 F F2 A | ccA F2 F |"C" GGG G2 G | EED C2 C |$"F" F2 F F2 A | ccA F2 F | 
w: day? _|We're|Right * glad to|hear * of it, *|hear * of it, to|hear * of it, We're|right * glad to|hear * of it, And|
"C" G2 G C2 C |"F" F3- F2 z :| 
w: how is she to-|day? _|
V:2
C |: [A,F]2 F [A,F]2 A | [Fc]cA [CF]2 F | [B,G]GG [B,G]2 G | EED [B,C]2 C |$ [A,F]2 F [A,F]2 A | 
[Fc]cA [CF]2 F | [B,G]2 G [B,C]2 C | [A,F]3- [A,F]2 z | z6 |$ [A,F]2 F [A,F]2 A | [Fc]cA [CF]2 F | 
[B,G]GG [B,G]2 G | EED [B,C]2 C |$ [A,F]2 F [A,F]2 A | [Fc]cA [CF]2 F | [B,G]2 G [B,C]2 C | 
[A,F]3- [A,F]2 z :| 
V:3
z |: [F,,C,F,]3 [F,,C,F,]3 | [F,,C,F,]3 [F,,C,F,]3 | [C,E,G,]3 [C,E,G,]3 | [C,E,G,]3 [C,E,G,]3 |$ 
[F,,C,F,]3 [F,,C,F,]3 | [F,,C,F,]3 [F,,C,F,]3 | [C,E,G,]3 [C,E,G,]3 | [F,,C,F,]3- [F,,C,F,]3 | 
z6 |$ [F,,C,F,]3 [F,,C,F,]3 | [F,,C,F,]3 [F,,C,F,]3 | [C,E,G,]3 [C,E,G,]3 | [C,E,G,]3 [C,E,G,]3 |$ 
[F,,C,F,]3 [F,,C,F,]3 | [F,,C,F,]3 [F,,C,F,]3 | [C,E,G,]3 [C,E,G,]3 | [F,,C,F,]3- [F,,C,F,]3 :| 



